X: 5
T: The Irish Hoboy
T: The Irish Oboe
%R: march
B: "The Hibernian Muse" p.3 #2
F: http://imslp.org/wiki/The_Hibernian_Muse_%28Various%29
Z: 2015 John Chambers <jc:trillian.mit.edu>
P: No. V.
M: 2/4
L: 1/8
K: G
% - - - - - - - - - - - - - - - - - - - - - - - - - - - - -
V: 1
|:\
D>EGA | B2B2 | c2BA | BGE2 |\
DEGA  | B2B2 |TAGAB | GGG2 :|
|:\
gfed | efge | dcBA | BGE2 |\
gfed | efge | dcBA | GGG2 :|
% - - - - - - - - - - - - - - - - - - - - - - - - - - - - -
V: 2 clef=bass middle=d
|:\
G2Bd | g>abg | a2gf | e2E2 |\
G2Bd | g>abg | d2d2 | gGG2 :|
|:\
g2G2 | c2c'2 | bagf  | e2E2 |\
g2G2 | c2c'2 | d'2d2 | gdG2 :|

%%sep 2 1 500
%%sep 1 1 500

